packages/symbols/svgs/duotone/forward-step-duotone.svg

<svg width="24" height="24" viewBox="0 0 24 24" fill="none" xmlns="http://www.w3.org/2000/svg">
<path fill-rule="evenodd" clip-rule="evenodd" d="M3.55279 2.10558C3.89157 1.93619 4.29698 1.97274 4.6 2.20001L16.6 11.2C16.8518 11.3889 17 11.6852 17 12C17 12.3148 16.8518 12.6112 16.6 12.8L4.6 21.8C4.29698 22.0273 3.89157 22.0638 3.55279 21.8944C3.214 21.725 3 21.3788 3 21V3.00001C3 2.62123 3.214 2.27497 3.55279 2.10558ZM5 5.00001V19L14.3333 12L5 5.00001Z" fill="black"/>
<path opacity="0.5" fill-rule="evenodd" clip-rule="evenodd" d="M20 2C20.5523 2 21 2.44772 21 3V21C21 21.5523 20.5523 22 20 22C19.4477 22 19 21.5523 19 21V3C19 2.44772 19.4477 2 20 2Z" fill="black"/>
</svg>

<svg width="24" height="24" viewBox="0 0 24 24" xmlns="http://www.w3.org/2000/svg"><path fill-rule="evenodd" clip-rule="evenodd" d="M3.553 2.106A1 1 0 0 1 4.6 2.2l12 9a1 1 0 0 1 0 1.6l-12 9A1 1 0 0 1 3 21V3a1 1 0 0 1 .553-.894ZM5 5v14l9.333-7L5 5Z"/><path opacity=".5" fill-rule="evenodd" clip-rule="evenodd" d="M20 2a1 1 0 0 1 1 1v18a1 1 0 1 1-2 0V3a1 1 0 0 1 1-1Z"/></svg>
